packages/assets/static/images/icons/baseball.svg

<svg width="24" height="24" viewBox="0 0 24 24" xmlns="http://www.w3.org/2000/svg">
<path d="M12 2.25C10.0716 2.25 8.18657 2.82183 6.58319 3.89317C4.97982 4.96451 3.73013 6.48726 2.99218 8.26884C2.25422 10.0504 2.06114 12.0108 2.43735 13.9021C2.81355 15.7934 3.74215 17.5307 5.10571 18.8943C6.46928 20.2579 8.20656 21.1865 10.0979 21.5627C11.9892 21.9389 13.9496 21.7458 15.7312 21.0078C17.5127 20.2699 19.0355 19.0202 20.1068 17.4168C21.1782 15.8134 21.75 13.9284 21.75 12C21.7473 9.41498 20.7192 6.93661 18.8913 5.10872C17.0634 3.28084 14.585 2.25273 12 2.25ZM6.75844 18.3666C6.83532 18.2728 6.91219 18.1856 6.98532 18.0938C7.04687 18.0167 7.09266 17.9284 7.12006 17.8337C7.14746 17.739 7.15594 17.6398 7.14502 17.5418C7.13409 17.4438 7.10398 17.349 7.05639 17.2626C7.0088 17.1763 6.94467 17.1002 6.86766 17.0386C6.79065 16.977 6.70227 16.9312 6.60757 16.9038C6.51287 16.8764 6.4137 16.868 6.31572 16.8789C6.21774 16.8898 6.12287 16.9199 6.03652 16.9675C5.95018 17.0151 5.87406 17.0792 5.8125 17.1562L5.68688 17.3081C4.4343 15.823 3.74726 13.9428 3.74726 12C3.74726 10.0572 4.4343 8.17698 5.68688 6.69187L5.8125 6.84375C5.87406 6.92076 5.95018 6.98489 6.03652 7.03248C6.12287 7.08007 6.21774 7.11018 6.31572 7.12111C6.4137 7.13203 6.51287 7.12355 6.60757 7.09615C6.70227 7.06875 6.79065 7.02296 6.86766 6.96141C6.94467 6.89985 7.0088 6.82373 7.05639 6.73739C7.10398 6.65104 7.13409 6.55618 7.14502 6.4582C7.15594 6.36022 7.14746 6.26104 7.12006 6.16634C7.09266 6.07164 7.04687 5.98326 6.98532 5.90625C6.91219 5.8125 6.83532 5.71875 6.75844 5.63344C8.23383 4.41587 10.0871 3.74991 12 3.74991C13.9129 3.74991 15.7662 4.41587 17.2416 5.63344C17.1647 5.72719 17.0878 5.81344 17.0147 5.90625C16.9531 5.98326 16.9073 6.07164 16.8799 6.16634C16.8525 6.26104 16.8441 6.36022 16.855 6.4582C16.8659 6.55618 16.896 6.65104 16.9436 6.73739C16.9912 6.82373 17.0553 6.89985 17.1323 6.96141C17.2094 7.02296 17.2977 7.06875 17.3924 7.09615C17.4871 7.12355 17.5863 7.13203 17.6843 7.12111C17.7823 7.11018 17.8771 7.08007 17.9635 7.03248C18.0498 6.98489 18.1259 6.92076 18.1875 6.84375L18.3131 6.69187C19.5657 8.17698 20.2528 10.0572 20.2528 12C20.2528 13.9428 19.5657 15.823 18.3131 17.3081L18.1875 17.1562C18.1272 17.0759 18.0513 17.0085 17.9644 16.9581C17.8775 16.9077 17.7814 16.8752 17.6817 16.8626C17.5821 16.85 17.4809 16.8576 17.3842 16.8849C17.2875 16.9122 17.1973 16.9586 17.1189 17.0214C17.0405 17.0843 16.9755 17.1622 16.9278 17.2506C16.8801 17.339 16.8506 17.4361 16.8412 17.5361C16.8317 17.6362 16.8425 17.737 16.8728 17.8328C16.903 17.9286 16.9523 18.0174 17.0175 18.0938C17.0906 18.1875 17.1675 18.2766 17.2444 18.3666C15.769 19.5841 13.9157 20.2501 12.0028 20.2501C10.0899 20.2501 8.23665 19.5841 6.76125 18.3666H6.75844ZM8.98969 13.6238C8.89652 14.177 8.75601 14.7212 8.56969 15.2503C8.5033 15.4379 8.36511 15.5915 8.18552 15.6772C8.00592 15.7629 7.79963 15.7737 7.61204 15.7073C7.42444 15.641 7.27089 15.5028 7.18518 15.3232C7.09947 15.1436 7.08862 14.9373 7.155 14.7497C7.31306 14.3031 7.43195 13.8435 7.51032 13.3762C7.52576 13.2784 7.56044 13.1845 7.61235 13.1002C7.66427 13.0158 7.73238 12.9425 7.81277 12.8846C7.89316 12.8267 7.98423 12.7853 8.08071 12.7628C8.1772 12.7402 8.27719 12.7371 8.37491 12.7534C8.47262 12.7698 8.56614 12.8053 8.65004 12.858C8.73394 12.9107 8.80657 12.9795 8.86373 13.0604C8.9209 13.1413 8.96146 13.2328 8.98308 13.3295C9.0047 13.4262 9.00695 13.5262 8.98969 13.6238ZM8.98969 10.3763C9.0225 10.5724 8.97605 10.7736 8.86054 10.9355C8.74503 11.0974 8.56993 11.2069 8.37375 11.2397C8.33283 11.2463 8.29146 11.2498 8.25 11.25C8.07271 11.2498 7.90123 11.1867 7.766 11.0721C7.63076 10.9575 7.54051 10.7986 7.51125 10.6237C7.43289 10.1565 7.314 9.69695 7.15594 9.25031C7.08955 9.06271 7.10041 8.85643 7.18612 8.67683C7.27183 8.49723 7.42537 8.35904 7.61297 8.29266C7.80057 8.22627 8.00686 8.23712 8.18646 8.32283C8.36605 8.40854 8.50424 8.56209 8.57063 8.74969C8.75662 9.27888 8.89683 9.82307 8.98969 10.3763ZM16.3875 15.7069C16.2 15.7732 15.9939 15.7624 15.8144 15.6768C15.6349 15.5912 15.4967 15.4378 15.4303 15.2503C15.244 14.7212 15.1035 14.177 15.0103 13.6238C14.9931 13.5262 14.9953 13.4262 15.0169 13.3295C15.0386 13.2328 15.0791 13.1413 15.1363 13.0604C15.1934 12.9795 15.2661 12.9107 15.35 12.858C15.4339 12.8053 15.5274 12.7698 15.6251 12.7534C15.7228 12.7371 15.8228 12.7402 15.9193 12.7628C16.0158 12.7853 16.1068 12.8267 16.1872 12.8846C16.2676 12.9425 16.3357 13.0158 16.3877 13.1002C16.4396 13.1845 16.4742 13.2784 16.4897 13.3762C16.5681 13.8435 16.6869 14.3031 16.845 14.7497C16.8778 14.8426 16.892 14.941 16.8868 15.0394C16.8816 15.1378 16.857 15.2342 16.8146 15.3231C16.7721 15.412 16.7125 15.4916 16.6392 15.5575C16.5659 15.6233 16.4804 15.6741 16.3875 15.7069ZM15.0103 10.3763C15.1035 9.82304 15.244 9.27885 15.4303 8.74969C15.4967 8.56209 15.6349 8.40854 15.8145 8.32283C15.9941 8.23712 16.2004 8.22627 16.388 8.29266C16.5756 8.35904 16.7291 8.49723 16.8148 8.67683C16.9005 8.85643 16.9114 9.06271 16.845 9.25031C16.6869 9.69695 16.5681 10.1565 16.4897 10.6237C16.4604 10.7988 16.37 10.9577 16.2346 11.0724C16.0992 11.1871 15.9275 11.25 15.75 11.25C15.7082 11.2498 15.6665 11.2464 15.6253 11.2397C15.4293 11.2066 15.2544 11.0971 15.1391 10.9352C15.0238 10.7733 14.9775 10.5723 15.0103 10.3763Z"/>
</svg>

<svg viewBox="0 0 24 24" xmlns="http://www.w3.org/2000/svg" aria-hidden="true" fill="currentColor"><path d="M12 2.25A9.75 9.75 0 1 0 21.75 12 9.76 9.76 0 0 0 12 2.25M6.758 18.367c.077-.094.154-.181.227-.273a.752.752 0 0 0-1.173-.938l-.125.152a8.23 8.23 0 0 1 0-10.616l.125.152a.75.75 0 0 0 1.173-.938 5 5 0 0 0-.227-.273 8.235 8.235 0 0 1 10.484 0c-.077.094-.154.18-.227.273a.75.75 0 1 0 1.172.938l.126-.152a8.23 8.23 0 0 1 0 10.616l-.125-.152a.749.749 0 1 0-1.17.938q.11.139.226.273a8.236 8.236 0 0 1-10.483 0zm2.232-4.743a10 10 0 0 1-.42 1.626.75.75 0 1 1-1.415-.5q.237-.671.355-1.374a.75.75 0 1 1 1.48.248m0-3.248a.75.75 0 0 1-1.479.248 8 8 0 0 0-.355-1.374.75.75 0 1 1 1.415-.5q.28.795.419 1.626m7.397 5.33a.75.75 0 0 1-.957-.456 10 10 0 0 1-.42-1.626.752.752 0 0 1 1.177-.74.75.75 0 0 1 .303.492q.117.703.355 1.374a.75.75 0 0 1-.457.957m-1.377-5.33a10 10 0 0 1 .42-1.626.75.75 0 0 1 1.415.5 8 8 0 0 0-.355 1.374.75.75 0 0 1-1.48-.248"/></svg>
